casedrop/img/icons/media/likee.svg

<svg width="18" height="16" viewBox="0 0 18 16" fill="none" xmlns="http://www.w3.org/2000/svg">
<g clip-path="url(#clip0_35_5787)">
<path d="M4.89283 0.885255C4.69769 0.885178 4.50214 0.892487 4.37365 0.907169C3.794 0.973404 3.27002 1.11623 2.77881 1.34485L6.27321 4.71515L8.58351 2.48542L8.58343 2.4846L8.57562 2.49198L8.35803 2.28662C8.11413 2.05631 7.93358 1.90729 7.71691 1.75759C7.03281 1.28495 6.28507 1.00945 5.40966 0.907544C5.28273 0.892767 5.08797 0.885327 4.89283 0.885255Z" fill="#464D60"/>
<path d="M2.77919 1.34473L2.66325 1.4009C2.19946 1.62558 1.67649 2.00632 1.32932 2.37205C1.00755 2.71102 0.805515 2.98306 0.583346 3.37655L0.478027 3.56677L3.9721 6.93483L6.27359 4.71503C6.27359 4.71503 2.77997 1.34548 2.77919 1.34473Z" fill="#62697C"/>
<path d="M0.477819 3.56689L0.402557 3.73701C0.222732 4.14374 0.103369 4.5717 0.0418674 5.03001C0.0129424 5.24556 0.00882297 5.89315 0.0350746 6.09724C0.156199 7.03888 0.496628 7.82257 1.09818 8.54061L1.51703 8.98559C1.56718 9.03475 1.61255 9.07928 1.67934 9.14441L3.97074 6.93607C3.98034 6.92681 0.477819 3.56689 0.477819 3.56689Z" fill="#575E72"/>
<path d="M16.6599 3.53662C16.6565 3.53662 15.2414 4.8985 13.4749 6.60013L6.27002 13.5706C7.39637 14.6559 8.32675 15.5465 8.3436 15.5548C8.36119 15.5635 8.39853 15.5779 8.42667 15.5868C8.45578 15.5961 8.51417 15.6012 8.56212 15.5988C8.73306 15.5901 8.4578 15.8451 12.3171 12.1206C14.2523 10.2529 15.8869 8.66646 15.9495 8.5952C16.2388 8.26569 16.478 7.91061 16.6565 7.54559C17.2535 6.32488 17.2815 4.93483 16.7345 3.68776C16.698 3.60463 16.6645 3.53662 16.6599 3.53662Z" fill="#575E72"/>
<path d="M14.3357 1.29639L3.95215 11.3426C3.95219 11.3426 3.95619 11.3465 3.95621 11.3465C7.4129 7.99044 14.3488 1.30512 14.3488 1.30512C14.346 1.30268 14.3411 1.29962 14.3357 1.29639ZM14.3747 1.31627C14.3747 1.31627 3.96902 11.3526 3.96909 11.3526C4.73013 12.0867 5.50905 12.8363 6.27009 13.5705L16.6599 3.53643L16.6042 3.42016C16.1626 2.57107 15.4198 1.84381 14.541 1.40016L14.3747 1.31627Z" fill="#464D60"/>
<path d="M2.82083 10.2454L1.6792 9.14421C3.9706 6.93587 8.22107 2.79028 9.2005 1.9175C9.69287 1.53906 10.1949 1.27486 10.761 1.09626C11.0937 0.991326 11.3738 0.932181 11.746 0.888295C11.976 0.861176 12.5477 0.857727 12.7693 0.882123C13.1443 0.923423 13.5025 0.998796 13.8309 1.10551C14.0023 1.16121 14.3297 1.28858 14.3745 1.3165C10.6718 4.94162 8.5544 6.91718 3.96245 11.3467L2.82083 10.2454Z" fill="#393F4F"/>
</g>
<defs>
<clipPath id="clip0_35_5787">
<rect width="17.1429" height="15" fill="white" transform="translate(0 0.856934)"/>
</clipPath>
</defs>
</svg>

<svg width="18" height="16" fill="none" xmlns="http://www.w3.org/2000/svg"><g clip-path="url(#clip0_35_5787)"><path d="M4.893.885c-.195 0-.39.007-.52.022a5.106 5.106 0 00-1.594.438l3.494 3.37 2.31-2.23-.007.007-.218-.205a5.122 5.122 0 00-.641-.53c-.684-.472-1.432-.748-2.307-.85a5.015 5.015 0 00-.517-.022z" fill="#464D60"/><path d="M2.78 1.345l-.117.056a5.002 5.002 0 00-1.334.971 4.66 4.66 0 00-.746 1.005l-.105.19 3.494 3.368 2.302-2.22-3.495-3.37z" fill="#62697C"/><path d="M.478 3.567l-.075.17c-.18.407-.3.835-.361 1.293a6.9 6.9 0 00-.007 1.067 4.567 4.567 0 001.063 2.444l.419.445.162.158 2.292-2.208c.01-.01-3.493-3.37-3.493-3.37zm16.182-.03c-.003 0-1.419 1.362-3.185 3.063L6.27 13.57a207.496 207.496 0 002.074 1.985.728.728 0 00.083.032c.029.01.087.014.135.012.171-.009-.104.246 3.755-3.478a483.022 483.022 0 003.633-3.526c.289-.33.528-.684.707-1.05.596-1.22.625-2.61.078-3.857a.979.979 0 00-.075-.151z" fill="#575E72"/><path d="M14.336 1.296L3.952 11.343l.004.004C7.413 7.99 14.35 1.305 14.35 1.305a.104.104 0 00-.013-.009zm.039.02L3.969 11.353 6.27 13.57 16.66 3.536l-.056-.116a4.778 4.778 0 00-2.063-2.02l-.166-.084z" fill="#464D60"/><path d="M2.82 10.245l-1.14-1.1C3.97 6.934 8.22 2.79 9.2 1.917a4.947 4.947 0 011.561-.822c.333-.105.613-.164.985-.208.23-.027.802-.03 1.023-.006a5.34 5.34 0 011.062.224c.171.055.499.183.543.21-3.702 3.626-5.82 5.601-10.412 10.03l-1.141-1.1z" fill="#393F4F"/></g><defs><clipPath id="clip0_35_5787"><path fill="#fff" transform="translate(0 .857)" d="M0 0h17.143v15H0z"/></clipPath></defs></svg>
